X: 1688
T: Anthony Dick
R: strathspey
M: 4/4
K: Cmajor
cA|:GEDC EGGA|GEcG D2 cA|GEDC EGAc|GEDE C2 cA:|
|:GAcd ecgc|ecge d2 cA|1 GAcd ecge|
dcde c2 cA:|2 GAcd egae|gede c2 cA||

